X:330
T:Ghol e Sangam
T:Flower of Stone
Z:Jack Campin, http://www.campin.me.uk/
F:Jack Campin's Nine-Note Tunebook
% last edit 03-02-2013
S:Aidin Poori
G:Persian song from the 1970s
M:C
L:1/8
Q:1/4=120 % "Allegro"
K:FMin
 =EF G2 F4 |F=E F2   E4|=EF  G2 F4   |F=E F2  E4 |
  FG A2 G4 |GF  G2   F4| F=E F2 E2 DE|F2  G2  F4:|
|:AB c2 B4 |AG  A2   G4| GA  B2 A4   |GF  G2  F4:|
  FG A2 G4 |GF  G2   F4| F=E F2 E2 DE|F2  G2  F4||
|:AB c2 c3d|c<B`B<=A B4| GA  B2 B3  c|B<A`A<G A4:|
  FG A2 A4 |Ac``BA   G4|=EF  G2 G4   |GB``AG  F4|]


% == Armenian songs and duduk tunes =========================================

